svg/design/vector_bezier_fill.svg

<?xml version="1.0" encoding="UTF-8"?>
<svg width="24px" height="24px" viewBox="0 0 24 24" version="1.1" xmlns="http://www.w3.org/2000/svg" xmlns:xlink="http://www.w3.org/1999/xlink">
    <title>vector_bezier_fill</title>
    <g id="页面-1" stroke="none" stroke-width="1" fill="none" fill-rule="evenodd">
        <g id="Editor" transform="translate(-336.000000, -144.000000)" fill-rule="nonzero">
            <g id="vector_bezier_fill" transform="translate(336.000000, 144.000000)">
                 <path d="M24,0 L24,24 L0,24 L0,0 L24,0 Z M12.5934901,23.257841 L12.5819402,23.2595131 L12.5108777,23.2950439 L12.4918791,23.2987469 L12.4918791,23.2987469 L12.4767152,23.2950439 L12.4056548,23.2595131 C12.3958229,23.2563662 12.3870493,23.2590235 12.3821421,23.2649074 L12.3780323,23.275831 L12.360941,23.7031097 L12.3658947,23.7234994 L12.3769048,23.7357139 L12.4804777,23.8096931 L12.4953491,23.8136134 L12.4953491,23.8136134 L12.5071152,23.8096931 L12.6106902,23.7357139 L12.6232938,23.7196733 L12.6232938,23.7196733 L12.6266527,23.7031097 L12.609561,23.275831 C12.6075724,23.2657013 12.6010112,23.2592993 12.5934901,23.257841 L12.5934901,23.257841 Z M12.8583906,23.1452862 L12.8445485,23.1473072 L12.6598443,23.2396597 L12.6498822,23.2499052 L12.6498822,23.2499052 L12.6471943,23.2611114 L12.6650943,23.6906389 L12.6699349,23.7034178 L12.6699349,23.7034178 L12.678386,23.7104931 L12.8793402,23.8032389 C12.8914285,23.8068999 12.9022333,23.8029875 12.9078286,23.7952264 L12.9118235,23.7811639 L12.8776777,23.1665331 C12.8752882,23.1545897 12.8674102,23.1470016 12.8583906,23.1452862 L12.8583906,23.1452862 Z M12.1430473,23.1473072 C12.1332178,23.1423925 12.1221763,23.1452606 12.1156365,23.1525954 L12.1099173,23.1665331 L12.0757714,23.7811639 C12.0751323,23.7926639 12.0828099,23.8018602 12.0926481,23.8045676 L12.108256,23.8032389 L12.3092106,23.7104931 L12.3186497,23.7024347 L12.3186497,23.7024347 L12.3225043,23.6906389 L12.340401,23.2611114 L12.337245,23.2485176 L12.337245,23.2485176 L12.3277531,23.2396597 L12.1430473,23.1473072 Z" id="MingCute" fill-rule="nonzero"></path>
                <path d="M9,6 C9,4.89543 9.89543,4 11,4 L13,4 C14.1046,4 15,4.89543 15,6 L19.2676,6 C19.6134,5.4022 20.2597,5 21,5 C22.1046,5 23,5.89543 23,7 C23,8.10457 22.1046,9 21,9 C20.2597,9 19.6134,8.5978 19.2676,8 L15.876,8 C18.0589,9.21128 19.6156,11.414 19.9381,14 L20,14 C21.1046,14 22,14.8954 22,16 L22,18 C22,19.1046 21.1046,20 20,20 L18,20 C16.8954,20 16,19.1046 16,18 L16,16 C16,14.9231 16.8511,14.045 17.9173,14.0017 C17.5752,11.9587 16.2007,10.2656 14.3485,9.47703 C13.9929,9.80187 13.5196,10 13,10 L11,10 C10.4804,10 10.0071,9.80187 9.65151,9.47704 C7.79932,10.2656 6.42482,11.9587 6.08268,14.0017 C7.14891,14.045 8,14.9231 8,16 L8,18 C8,19.1046 7.10457,20 6,20 L4,20 C2.89543,20 2,19.1046 2,18 L2,16 C2,14.8954 2.89543,14 4,14 L4.06189,14 C4.38437,11.414 5.9411,9.21128 8.12399,8 L4.73244,8 C4.38663,8.5978 3.74028,9 3,9 C1.89543,9 1,8.10457 1,7 C1,5.89543 1.89543,5 3,5 C3.74028,5 4.38663,5.4022 4.73244,6 L9,6 Z" id="路径" fill="#09244B"></path>
            </g>
        </g>
    </g>
</svg>

<svg xmlns="http://www.w3.org/2000/svg" width="24" height="24"><g fill="none" fill-rule="nonzero"><path d="M24 0v24H0V0h24ZM12.593 23.258l-.011.002-.071.035-.02.004-.014-.004-.071-.035c-.01-.004-.019-.001-.024.005l-.004.01-.017.428.005.02.01.013.104.074.015.004.012-.004.104-.074.012-.016.004-.017-.017-.427c-.002-.01-.009-.017-.017-.018Zm.265-.113-.013.002-.185.093-.01.01-.003.011.018.43.005.012.008.007.201.093c.012.004.023 0 .029-.008l.004-.014-.034-.614c-.003-.012-.01-.02-.02-.022Zm-.715.002a.023.023 0 0 0-.027.006l-.006.014-.034.614c0 .012.007.02.017.024l.015-.002.201-.093.01-.008.004-.011.017-.43-.003-.012-.01-.01-.184-.092Z"/><path fill="#09244B" d="M9 6a2 2 0 0 1 2-2h2a2 2 0 0 1 2 2h4.268A2 2 0 0 1 23 7a2 2 0 0 1-3.732 1h-3.392a8.004 8.004 0 0 1 4.062 6H20a2 2 0 0 1 2 2v2a2 2 0 0 1-2 2h-2a2 2 0 0 1-2-2v-2a2 2 0 0 1 1.917-1.998 6.008 6.008 0 0 0-3.569-4.525A1.993 1.993 0 0 1 13 10h-2c-.52 0-.993-.198-1.348-.523a6.008 6.008 0 0 0-3.57 4.525A2 2 0 0 1 8 16v2a2 2 0 0 1-2 2H4a2 2 0 0 1-2-2v-2a2 2 0 0 1 2-2h.062a8.004 8.004 0 0 1 4.062-6H4.732a2 2 0 1 1 0-2H9Z"/></g></svg>
